X:1
T:Title
%%score [ ( 1 2 ) ( 3 4 ) ]
L:1/8
Q:1/4=120
M:4/4
K:F
V:1 treble nm="Midi_74"
V:2 treble 
V:3 bass nm="Midi_74"
V:4 bass 
V:1
!f!"^Henry Kirke White\nand others" A2"^Oft in danger" F2 d2 c2 | B2 A2 G4 | A2 F2 c2 c2 | %3
w: Oft in dan- ger,|oft in woe,|On- ward, Christ- ians,|
w: |||
 c2 =B2"^H.J. Gauntlett\n1805-1876" c4 || A2 G2 F2 d2 | c2 B2 A4 | A2 A2 c2 A2 | A2 G2 F4 |] %8
w: on- ward go;|Bear the toil, main-|tain the strife,|Strength- ened with the|Bread of Life.|
w: |||||
"^Men"!f! A2 F2 d2 c2 | B2 A2 G4 | A2 F2 c2 c2 | c2 =B2 c4 || A2 G2 F2 d2 | c2 B2 A4 | %14
w: On- ward, Christ- ians,|on- ward go,|Join the war, and|face the foe;|Will ye flee in|dan- ger's hour?|
w: ||||||
 A2 A2 c2 A2 | A2 G2 F4 |]!mf! A2 F2 d2 c2 | B2 A2 G4 | A2 F2 c2 c2 | c2 =B2 c4 || A2 G2 F2 d2 | %21
w: Know ye not your|Cap- tain's power?|Let your droop- ing|hearts be glad;|March in heav'n- ly|ar- mour clad;|Fight, nor think the|
w: |||||||
 c2 B2 A4 | A2 A2 c2 A2 | A2 G2 F4 |]"^Women""^All"!mf! A2!f! F2 d2 c2 | B2 A2 G4 | A2 F2 c2 c2 | %27
w: bat- tle long,|Vic- t'ry soon shall|tune your song.|Let not sor- row|dim your eye,|Soon shall ev- 'ry|
w: |||On- ward then in|bat- tle move;|More than con- qu'rors|
 c2 =B2 c4 ||"^This edition produced by Andrew Sims 2008" A2 G2 F2 d2 | c2 B2 A4 | A2 A2 c2 A2 | %31
w: tear be dry;|Let not fears your|course im- pede,|Great your strength, if|
w: ye shall prove;|Though op- posed by|man- y~a foe,|Christ- ian sol- diers,|
 A2 G2 F4 |] %32
w: great your need.|
w: on- ward go.|
V:2
 F2 F2 F2 F2 | G2 F2 E4 | F2 F2 A2 G2 | F2 F2 E4 || F2 E2 F2 F2 | F2 FE F4 | E2 F2 E2 F2 | %7
 F2 E2 F4 |] x8 | x8 | x8 | x8 || x8 | x8 | x8 | x8 |] F2 F2 F2 F2 | G2 F2 E4 | F2 F2 A2 G2 | %19
 F2 F2 E4 || F2 E2 F2 F2 | F2 FE F4 | E2 F2 E2 F2 | F2 E2 F4 |] x8 | x8 | x8 | x8 || x8 | x8 | x8 | %31
 x8 |] %32
V:3
 C2 A,2 B,2 C2 | C2 C2 C4 | C2 C2 C2 C2 | D2 D2 G,4 || A,2 CB, A,2 B,A, | G,2 C2 C4 | %6
 A,2 F,2 G,2 A,B, | C2 CB, A,4 |][M:4/4] z8 | z8 | z8 | z8 ||[M:4/4] z8 | z8 | z8 | z8 |] %16
[M:4/4] C2 A,2 B,2 C2 | C2 C2 C4 | C2 C2 C2 C2 | D2 D2 G,4 || A,2 CB, A,2 B,A, | G,2 C2 C4 | %22
 A,2 F,2 G,2 A,B, | C2 CB, A,4 |][M:4/4] z8 | z8 | z8 | z8 ||[M:4/4] z8 | z8 | z8 | z8 |] %32
V:4
 F,2 F,2 B,2 A,2 | E,2 F,2 C,4 | F,2 A,2 F,2 E,2 | D,2 D,2 C,4 || F,2 C,2 D,2 B,,2 | C,2 C,2 F,4 | %6
 ^C,2 D,2 =C,2 F,2 | C,2 C,2 F,4 |][M:4/4] x8 | x8 | x8 | x8 ||[M:4/4] x8 | x8 | x8 | x8 |] %16
[M:4/4] F,2 F,2 B,2 A,2 | E,2 F,2 C,4 | F,2 A,2 F,2 E,2 | D,2 D,2 C,4 || F,2 C,2 D,2 B,,2 | %21
 C,2 C,2 F,4 | ^C,2 D,2 =C,2 F,2 | C,2 C,2 F,4 |][M:4/4] x8 | x8 | x8 | x8 ||[M:4/4] x8 | x8 | x8 | %31
 x8 |] %32

